X:1
T:Title
%%score { 1 | ( 2 3 ) }
L:1/8
Q:1/4=100
M:4/4
K:Bb
V:1 treble nm="Grand Piano"
V:2 bass 
V:3 bass 
V:1
 [Fd]2 [Fd]2 [Fd]2 [DB]>[Ec] | [Fd]>[Ge] [Fd]>[=E_d] [F=d]2 [DB]2 | c2 c2 c2 A[CAc] | %3
w: William~F.~Sherwin * * * *|||
 [CGB]2 [B,=EG]2 [A,F]2 z2 | [Fd]2 [Fd]2 [Fd]2 [DB]>[Ec] | [Fd]>[Ge] [Fd]>[=E_d] [F=d]2 [DB]2 | %6
w: |||
 [EG]2 [GB]2 [Ge]2 [Fd][Gc] | [FB]2 [CEA]2 [DB]2 z2 | B2 B2 B2 G>A | B>A B>[Ac] [Bd]2 [GB]2 | %10
w: ||||
 [^FA]2 [FA]2 [FA]2 [GB][Ac] | [GB]2 [^FA]2 GAB=B | [=Ec]2 [Ec]2 [Ec]2 [EG]>[GB] | %13
w: |||
 A>G A>[GB] [Ac]2 [FA]c | [Af]2 [c=e]d [Ac]2 [CFc][DGB] | [FA]2 [B,=EG]2 [A,F]2 z2 | %16
w: |||
 [Fd]2 [Fd]2 [Fd]2 [DB]>[Ec] | [Fd]>[Ge] [Fd]>[=E_d] [F=d]2 [DB]2 | c2 c2 c2 A[CAc] | %19
w: |||
 [CGB]2 [B,=EG]2 [A,F]2 z2 | [Fd]2 [Fd]2 [Fd]2 [DB]>[Ec] | [Fd]>[Ge] [Fd]>[=E_d] [F=d]2 [DB]2 | %22
w: |||
 [EG]2 [GB]2 [Ge]2 [Fd][Gc] |[M:8/4] [FB]2 [CEA]2 .[DB]4 z8 |] %24
w: ||
V:2
 [B,,B,]2 [B,,B,]2 [B,,B,]2 [B,,F,]>[B,,F,] | [B,,B,]>[B,,B,] [B,,B,]>[B,,B,] [B,,B,]2 [B,,F,]2 | %2
 [F,A,F]2 [F,A,F]2 [F,A,F]2 [F,CF]F, | C,2 C,2 F,2[K:treble] G/A/B/c/ | %4
 [B,,B,]2 [B,,B,]2 [B,,B,]2 [B,,F,]>[B,,F,] | [B,,B,]>[B,,B,] [B,,B,]>[B,,B,] [B,,B,]2 [B,,B,]2 | %6
 [E,B,]2 [E,B,]2 [C,C]2 [D,B,][E,E] | [F,D]2 [F,,F,]2 [B,,B,]2 z2 | %8
 [G,DG]2 [G,DG]2 [G,DG]2 [G,B,D]>[G,CD] | [G,DG]>[G,D^F] [G,DG]>[K:bass][G,D] [G,D]2 [G,D]2 | %10
 [D,D]2 [D,D]2 [D,D]2 [D,D][D,D] | [D,D]2 [D,C]2 [G,B,]2 z2 | [C,B,]2 [C,B,]2 [C,G,]2 [C,C]>[C,C] | %13
 [F,CF]>[F,C=E] [F,CF]>[F,C] [F,C]2 z A | F,2 z[K:treble] B[K:bass] F,2 A,B, | %15
 C2 C,2 F,2[K:treble] G/A/B/c/ | [B,,B,]2 [B,,B,]2 [B,,B,]2 [B,,F,]>[B,,F,] | %17
 [B,,B,]>[B,,B,] [B,,B,]>[B,,B,] [B,,B,]2 [B,,F,]2 | [F,A,F]2 [F,A,F]2 [F,A,F]2 [F,CF]F, | %19
 C,2 C,2 F,2[K:treble] G/A/B/c/ | [B,,B,]2 [B,,B,]2 [B,,B,]2 [B,,F,]>[B,,F,] | %21
 [B,,B,]>[B,,B,] [B,,B,]>[B,,B,] [B,,B,]2 [B,,B,]2 | [E,B,]2 [E,B,]2 [C,C]2 [D,B,][E,E] | %23
[M:8/4] [F,D]2 [F,,F,]2 .[B,,B,]4 z8 |] %24
V:3
 x8 | x8 | x8 | x6[K:treble] x2 | x8 | x8 | x8 | x8 | x8 | x7/2[K:bass] x9/2 | x8 | x8 | x8 | %13
 z4 z2 [F,C]2 | z2 F,2[K:treble][K:bass] z4 | x6[K:treble] x2 | x8 | x8 | x8 | x6[K:treble] x2 | %20
 x8 | x8 | x8 |[M:8/4] x16 |] %24

